X: 110106
T: CLEAN PEA STRAE
Q: "Reel."
R:  Reel.
%R: reel
B: James Kerr "Merry Melodies" v.1 p.10 s.1 #6
Z: 2017 John Chambers <jc:trillian.mit.edu>
M: C
L: 1/8
K: D
|: A2 !segno!||\
d2f2 gefd | eAAB =c2(BA) |\
defd gefd | egfe d2 :|\
(fg) |\
afdf afdf | eAAB =c2(fg) |
afdf afdf | egfe defg |\
afdf a/g/f/e/ df | eAAB =c2(fg) |\
afge fdec | Agfe dcBA |]\
"_Fine"H[d4D4] ||

% %newpage
%%sep 1 1 500
%%sep 1 1 500
%%center Set. 15th.

%%sep 1 1 500
%%sep 1 1 500

